!!!!SEGMENT: pl-stab--26a--004_nowakiewicz-kazimierz--missa-in-d-et-incarnatus.krn
!!!cenid: 18xx:3514
!!!COM: Nowakiewicz, Kazimierz
!!!COM-rismid: pe30020309
!!!CDT: <1800->1824
!!!CNT: Polish
!!!OPR: Missa in D
!!!OTL: Et incarnatus
!!!OMV: 004
!!!PDT: 1810
!!!AGN:
!!!SMS-siglum: PL-STAb
!!!SMS-shelfmark: 26a
!!!SMS-shelfwork: M
!!!SMS-variant:
!!!SMS-altvar:
!!!NIFC-rismid: 301050704
!!!URL-scan: https://repozytorium.nifc.pl/islandora/object/pl-stab%3A3636/datastream/PDF/view
!!!ONB-nifc: UWAGA: części Mszy: 1. Kyrie, 2. Gloria, 3. Credo, 4. Et incarnatus, 5. Et resurrexit, 6. Sanctus, 7. Benedictus, 8. Osanna, 9. Agnus Dei, 10. Dona nobis
!!!key: G
**kern	**dynam	**kern	**kern	**dynam	**kern	**kern	**text	**kern	**text	**kern	**text	**dynam	**kern	**text	**dynam	**kern	**kern	**kern	**dynam	**kern	**dynam
*	*	*group4	*group4	*	*group4	*group3	*	*group3	*	*group3	*	*	*group3	*	*	*group2	*group2	*group1	*	*group1	*
*part12	*part12	*part11	*part10	*part10	*part9	*part8	*part8	*part7	*part7	*part6	*part6	*part6	*part5	*part5	*part5	*part4	*part3	*part2	*part2	*part1	*part1
*staff12	*	*staff11	*staff10	*	*staff9	*staff8	*staff8	*staff7	*staff7	*staff6	*staff6	*	*staff5	*staff5	*	*staff4	*staff3	*staff2	*	*staff1	*
*I"Organo.	*	*I"Alto Viola	*I"Violino SecuNdo 1mo	*	*I"[Violino 1]	*I"Baſso	*	*I"Tenor	*	*I"Alto	*	*	*I"Canto	*	*	*I"Clarino Secundo et Cornu	*I"Clarino Primo et Cornu	*I"Oboe Secundo	*	*I"Oboe Primo	*
*I'org	*	*I'vla	*I'vl 2	*	*I'[vl 1]	*I'B	*	*I'T	*	*I'A	*	*	*I'S	*	*	*I'clno 2 et cor	*I'clno 1 et cor	*I'ob	*	*I'ob	*
*Iorgan	*	*Iviola	*Ivioln	*	*Ivioln	*Ibass	*	*Itenor	*	*Ialto	*	*	*Isoprn	*	*	*Icor	*Icor	*Ioboe	*	*Ioboe	*
*ICklav	*	*ICstr	*ICstr	*	*ICstr	*ICvox	*	*ICvox	*	*ICvox	*	*	*ICvox	*	*	*ICbras	*ICbras	*ICww	*	*ICww	*
*IGacmp	*	*IGacmp	*IGacmp	*	*IGacmp	*	*	*	*	*	*	*	*	*	*	*IGacmp	*IGacmp	*IGacmp	*	*IGacmp	*
*clefF4	*	*clefC3	*clefG2	*	*	*clefF4	*	*clefC4	*	*clefC3	*	*	*clefC1	*	*	*	*clefG2	*clefG2	*	*clefG2	*
*	*	*	*	*	*	*	*	*	*	*	*	*	*	*	*	*	*ITrd3c5	*	*	*	*
*k[f#]	*	*k[f#]	*k[f#]	*	*	*k[f#]	*	*k[f#]	*	*k[f#]	*	*	*k[f#]	*	*	*	*k[f#]	*k[f#]	*	*k[f#]	*
*G:	*	*G:	*G:	*	*	*G:	*	*G:	*	*G:	*	*	*G:	*	*	*	*G:	*G:	*	*G:	*
*M3/4	*	*M3/4	*M3/4	*	*	*M3/4	*	*M3/4	*	*M3/4	*	*	*M3/4	*	*	*	*M3/4	*M3/4	*	*M3/4	*
=1	=1	=1	=1	=1	=1	=1	=1	=1	=1	=1	=1	=1	=1	=1	=1	=1	=1	=1	=1	=1	=1
!	!	!	!	!	!	!	!	!	!	!	!	!	!	!	!	!	!LO:TX:a:t=in G.	!	!	!	!
!	!	!LO:TX:t=P:problem:przy kluczu błędnie B# e#	!	!	!	!	!	!	!	!	!	!	!	!	!	!	!LO:TX:a:t=35\nTacet	!LO:TX:b:i:t=dol.	!	!LO:TX:b:i:t=dol	!
!LO:TX:a:B:t=Andante	!LO:DY:t=po.:rj	!LO:TX:a:B:t=Andante	!LO:TX:a:B:t=Andante	!LO:DY:t=po	!LO:TX:t=P:problem:zgodnie z RISM "Partia vl 1 zaginęła"	!LO:TX:a:B:t=Andante	!	!LO:TX:a:B:t=Andante	!	!LO:TX:a:B:t=Andante	!	!	!LO:TX:a:B:t=Andante	!	!	!LO:TX:a:t=Et Incar.\nTacet	!LO:TX:b:t=Et incar\nnatus Tacet	!LO:TX:a:B:t=Andante	!	!LO:TX:a:B:t=Andante	!
8G\	p	8r	8r	p	2.ryy	0.r	.	0.r	.	0.r	.	.	0.r	.	.	2.ryy	2.r	8r	.	8r	.
!	!	!	!LO:N:vis=4	!	!	!	!	!	!	!	!	!	!	!	!	!	!	!	!	!	!
8r	.	8G/	8B/	.	.	.	.	.	.	.	.	.	.	.	.	.	.	8b\L	.	8gg\L	.
*	*	*tremolo	*tremolo	*	*	*	*	*	*	*	*	*	*	*	*	*	*	*	*	*	*
8GG/	.	8B/L	8d/L	.	.	.	.	.	.	.	.	.	.	.	.	.	.	8b\J	.	8gg\J	.
8r	.	8G/	8B/	.	.	.	.	.	.	.	.	.	.	.	.	.	.	8r	.	8r	.
4r	.	8B/	8d/	.	.	.	.	.	.	.	.	.	.	.	.	.	.	4r	.	4r	.
.	.	8G/J	8B/J	.	.	.	.	.	.	.	.	.	.	.	.	.	.	.	.	.	.
*	*	*Xtremolo	*Xtremolo	*	*	*	*	*	*	*	*	*	*	*	*	*	*	*	*	*	*
=2	=2	=2	=2	=2	=2	=2	=2	=2	=2	=2	=2	=2	=2	=2	=2	=2	=2	=2	=2	=2	=2
8C/	.	8r	8r	.	2.ryy	.	.	.	.	.	.	.	.	.	.	2.ryy	2.r	8r	.	8r	.
8r	.	8G/	8c/	.	.	.	.	.	.	.	.	.	.	.	.	.	.	8cc\L	.	8gg\L	.
*	*	*tremolo	*tremolo	*	*	*	*	*	*	*	*	*	*	*	*	*	*	*	*	*	*
8c\	.	8c/L	8e/L	.	.	.	.	.	.	.	.	.	.	.	.	.	.	8cc\J	.	8gg\J	.
8r	.	8G/	8c/	.	.	.	.	.	.	.	.	.	.	.	.	.	.	8r	.	8r	.
4r	.	8c/	8e/	.	.	.	.	.	.	.	.	.	.	.	.	.	.	4r	.	4r	.
.	.	8G/J	8c/J	.	.	.	.	.	.	.	.	.	.	.	.	.	.	.	.	.	.
*	*	*Xtremolo	*Xtremolo	*	*	*	*	*	*	*	*	*	*	*	*	*	*	*	*	*	*
=3	=3	=3	=3	=3	=3	=3	=3	=3	=3	=3	=3	=3	=3	=3	=3	=3	=3	=3	=3	=3	=3
8D\	.	8r	8r	.	2.ryy	.	.	.	.	.	.	.	.	.	.	2.ryy	2.r	0.r	.	1.r	.
8r	.	8F#/	8A/	.	.	.	.	.	.	.	.	.	.	.	.	.	.	.	.	.	.
*	*	*tremolo	*tremolo	*	*	*	*	*	*	*	*	*	*	*	*	*	*	*	*	*	*
8F#\	.	8A/L	8c/L	.	.	.	.	.	.	.	.	.	.	.	.	.	.	.	.	.	.
8r	.	8F#/	8A/	.	.	.	.	.	.	.	.	.	.	.	.	.	.	.	.	.	.
8D\	.	8A/	8c/	.	.	.	.	.	.	.	.	.	.	.	.	.	.	.	.	.	.
8r	.	8F#/J	8A/J	.	.	.	.	.	.	.	.	.	.	.	.	.	.	.	.	.	.
*	*	*Xtremolo	*Xtremolo	*	*	*	*	*	*	*	*	*	*	*	*	*	*	*	*	*	*
=4	=4	=4	=4	=4	=4	=4	=4	=4	=4	=4	=4	=4	=4	=4	=4	=4	=4	=4	=4	=4	=4
4r	.	8r	8r	.	2.ryy	.	.	.	.	.	.	.	.	.	.	2.ryy	2.r	.	.	.	.
!	!	!	!LO:N:vis=4	!	!	!	!	!	!	!	!	!	!	!	!	!	!	!	!	!	!
.	.	8G/	8B/	.	.	.	.	.	.	.	.	.	.	.	.	.	.	.	.	.	.
*	*	*tremolo	*tremolo	*	*	*	*	*	*	*	*	*	*	*	*	*	*	*	*	*	*
8G\	.	8B/L	8d/L	.	.	.	.	.	.	.	.	.	.	.	.	.	.	.	.	.	.
8r	.	8G/	8B/	.	.	.	.	.	.	.	.	.	.	.	.	.	.	.	.	.	.
8GG/	.	8B/	8d/	.	.	.	.	.	.	.	.	.	.	.	.	.	.	.	.	.	.
8r	.	8G/J	8B/J	.	.	.	.	.	.	.	.	.	.	.	.	.	.	.	.	.	.
*	*	*Xtremolo	*Xtremolo	*	*	*	*	*	*	*	*	*	*	*	*	*	*	*	*	*	*
=5	=5	=5	=5	=5	=5	=5	=5	=5	=5	=5	=5	=5	=5	=5	=5	=5	=5	=5	=5	=5	=5
8C/	.	8r	8r	.	2.ryy	0.r	.	0.r	.	0.r	.	.	0.r	.	.	2.ryy	2.r	.	.	8r	.
8r	.	8c\L	8e/L	.	.	.	.	.	.	.	.	.	.	.	.	.	.	.	.	8c|/	.
8E\	.	8e\	8g/	.	.	.	.	.	.	.	.	.	.	.	.	.	.	.	.	16e|/LL	.
.	.	.	.	.	.	.	.	.	.	.	.	.	.	.	.	.	.	.	.	16g|/	.
8r	.	8d#X\	8f#/	.	.	.	.	.	.	.	.	.	.	.	.	.	.	.	.	16cc|/	.
.	.	.	.	.	.	.	.	.	.	.	.	.	.	.	.	.	.	.	.	16ee|/JJ	.
!LO:LB:g=original	!	!	!	!	!	!	!	!	!	!	!	!	!	!	!	!	!	!	!	!	!
8C/	.	8e\J	8g/J	.	.	.	.	.	.	.	.	.	.	.	.	.	.	.	.	8gg|\	.
8r	.	8r	8r	.	.	.	.	.	.	.	.	.	.	.	.	.	.	.	.	8r	.
!	!	!	!LO:LB:g=original	!	!	!	!	!	!	!	!	!	!	!	!	!	!	!	!	!	!
=6	=6	=6	=6	=6	=6	=6	=6	=6	=6	=6	=6	=6	=6	=6	=6	=6	=6	=6	=6	=6	=6
8GG/	.	8r	8r	.	2.ryy	.	.	.	.	.	.	.	.	.	.	2.ryy	2.r	.	.	4r	.
8r	.	8B/L	8d/	.	.	.	.	.	.	.	.	.	.	.	.	.	.	.	.	.	.
8BB/	.	8d/	8g/L	.	.	.	.	.	.	.	.	.	.	.	.	.	.	.	.	16d|/LL	.
.	.	.	.	.	.	.	.	.	.	.	.	.	.	.	.	.	.	.	.	16g|/	.
8r	.	8d/	8f#/	.	.	.	.	.	.	.	.	.	.	.	.	.	.	.	.	16b|/	.
.	.	.	.	.	.	.	.	.	.	.	.	.	.	.	.	.	.	.	.	16dd|/JJ	.
8GG/	.	8d/	8g/J	.	.	.	.	.	.	.	.	.	.	.	.	.	.	.	.	8gg|\	.
8r	.	8B/J	8r	.	.	.	.	.	.	.	.	.	.	.	.	.	.	.	.	8r	.
=7	=7	=7	=7	=7	=7	=7	=7	=7	=7	=7	=7	=7	=7	=7	=7	=7	=7	=7	=7	=7	=7
*	*	*tremolo	*tremolo	*	*	*	*	*	*	*	*	*	*	*	*	*	*	*	*	*	*
8D\	.	8F#/L	(8A/L	.	2.ryy	.	.	.	.	.	.	.	.	.	.	2.ryy	2.r	2.r	.	16r	.
.	.	.	.	.	.	.	.	.	.	.	.	.	.	.	.	.	.	.	.	16d/LL	.
8r	.	8A/	8c/	.	.	.	.	.	.	.	.	.	.	.	.	.	.	.	.	16f#/	.
.	.	.	.	.	.	.	.	.	.	.	.	.	.	.	.	.	.	.	.	16a/JJ	.
8c\	.	8F#/	8A/	.	.	.	.	.	.	.	.	.	.	.	.	.	.	.	.	4cc\	.
8r	.	8A/	8c/	.	.	.	.	.	.	.	.	.	.	.	.	.	.	.	.	.	.
8F#\	.	8F#/	8A/	.	.	.	.	.	.	.	.	.	.	.	.	.	.	.	.	4r	.
8r	.	8A/J	8c/J)	.	.	.	.	.	.	.	.	.	.	.	.	.	.	.	.	.	.
*	*	*Xtremolo	*Xtremolo	*	*	*	*	*	*	*	*	*	*	*	*	*	*	*	*	*	*
!	!	!	!	!	!	!	!	!	!	!	!	!	!	!	!	!	!	!	!	!LO:LB:g=original	!
=8	=8	=8	=8	=8	=8	=8	=8	=8	=8	=8	=8	=8	=8	=8	=8	=8	=8	=8	=8	=8	=8
4r	.	8F#/L	8A/L	.	2.ryy	.	.	.	.	.	.	.	.	.	.	2.ryy	2.r	4r	.	4r	.
.	.	8A/J	8c/J	.	.	.	.	.	.	.	.	.	.	.	.	.	.	.	.	.	.
8r	.	4G/	4B/	.	.	.	.	.	.	.	.	.	.	.	.	.	.	8r	.	8r	.
8G\	.	.	.	.	.	.	.	.	.	.	.	.	.	.	.	.	.	8b\	.	8gg\	.
4GG/	.	4r	4r	.	.	.	.	.	.	.	.	.	.	.	.	.	.	4b\	.	4gg\	.
!	!	!LO:LB:g=original	!	!	!	!	!	!	!	!	!	!	!	!	!	!	!	!	!	!	!
=9	=9	=9	=9	=9	=9	=9	=9	=9	=9	=9	=9	=9	=9	=9	=9	=9	=9	=9	=9	=9	=9
!	!LO:DY:rj	!	!	!	!	!	!	!LO:TX:a:i:t=Solo:rj	!	!	!	!	!	!	!	!	!	!	!	!	!
8G\	p	8r	8r	.	2.ryy	0.r	.	4.d\	Et	0.r	.	.	0.r	.	.	2.ryy	2.r	0.r	.	0.r	.
8r	.	8G/	8B/	.	.	.	.	.	.	.	.	.	.	.	.	.	.	.	.	.	.
*	*	*tremolo	*tremolo	*	*	*	*	*	*	*	*	*	*	*	*	*	*	*	*	*	*
8GG/	.	8B/L	8G/L	.	.	.	.	.	.	.	.	.	.	.	.	.	.	.	.	.	.
8r	.	8G/	8B/	.	.	.	.	8B\	in-	.	.	.	.	.	.	.	.	.	.	.	.
4r	.	8B/	8G/	.	.	.	.	(16G\LL	-car-	.	.	.	.	.	.	.	.	.	.	.	.
.	.	.	.	.	.	.	.	16B\	.	.	.	.	.	.	.	.	.	.	.	.	.
.	.	8G/J	8B/J	.	.	.	.	16d\	.	.	.	.	.	.	.	.	.	.	.	.	.
.	.	.	.	.	.	.	.	16g\JJ)	.	.	.	.	.	.	.	.	.	.	.	.	.
*	*	*Xtremolo	*Xtremolo	*	*	*	*	*	*	*	*	*	*	*	*	*	*	*	*	*	*
=10	=10	=10	=10	=10	=10	=10	=10	=10	=10	=10	=10	=10	=10	=10	=10	=10	=10	=10	=10	=10	=10
8G\	.	8r	8r	.	2.ryy	.	.	8.d#X\L	-na-	.	.	.	.	.	.	2.ryy	2.r	.	.	.	.
8r	.	8G/	8c/	.	.	.	.	.	.	.	.	.	.	.	.	.	.	.	.	.	.
.	.	.	.	.	.	.	.	16e\Jk	-tu	.	.	.	.	.	.	.	.	.	.	.	.
*	*	*tremolo	*tremolo	*	*	*	*	*	*	*	*	*	*	*	*	*	*	*	*	*	*
8GG/	.	8c/L	8G/L	.	.	.	.	4e\	est	.	.	.	.	.	.	.	.	.	.	.	.
8r	.	8G/	8c/	.	.	.	.	.	.	.	.	.	.	.	.	.	.	.	.	.	.
4r	.	8c/	8G/	.	.	.	.	4r	.	.	.	.	.	.	.	.	.	.	.	.	.
.	.	8G/J	8c/J	.	.	.	.	.	.	.	.	.	.	.	.	.	.	.	.	.	.
*	*	*Xtremolo	*Xtremolo	*	*	*	*	*	*	*	*	*	*	*	*	*	*	*	*	*	*
=11	=11	=11	=11	=11	=11	=11	=11	=11	=11	=11	=11	=11	=11	=11	=11	=11	=11	=11	=11	=11	=11
8D\	.	8r	8r	.	2.ryy	.	.	4c\	de	.	.	.	.	.	.	2.ryy	2.r	.	.	.	.
8r	.	8d\	8f#/	.	.	.	.	.	.	.	.	.	.	.	.	.	.	.	.	.	.
*	*	*tremolo	*tremolo	*	*	*	*	*	*	*	*	*	*	*	*	*	*	*	*	*	*
!	!	!LO:TX:t=P:problem:mixed beam	!	!	!	!	!	!	!	!	!	!	!	!	!	!	!	!	!	!	!
8d\	.	8D/L	8d/L	.	.	.	.	16c\LL	spi-	.	.	.	.	.	.	.	.	.	.	.	.
.	.	.	.	.	.	.	.	16B\	.	.	.	.	.	.	.	.	.	.	.	.	.
8r	.	8d\	8f#/	.	.	.	.	16A\	.	.	.	.	.	.	.	.	.	.	.	.	.
.	.	.	.	.	.	.	.	16G\JJ	.	.	.	.	.	.	.	.	.	.	.	.	.
!	!	!	!	!	!	!	!	!LO:TX:t=P:problem:mixed beam	!	!	!	!	!	!	!	!	!	!	!	!	!
8D\	.	8D/	8d/	.	.	.	.	16E/LL	-ri-	.	.	.	.	.	.	.	.	.	.	.	.
.	.	.	.	.	.	.	.	16e\	.	.	.	.	.	.	.	.	.	.	.	.	.
8r	.	8d\J	8f#/J	.	.	.	.	16d\	-tu	.	.	.	.	.	.	.	.	.	.	.	.
.	.	.	.	.	.	.	.	16c\JJ	.	.	.	.	.	.	.	.	.	.	.	.	.
*	*	*Xtremolo	*Xtremolo	*	*	*	*	*	*	*	*	*	*	*	*	*	*	*	*	*	*
=12	=12	=12	=12	=12	=12	=12	=12	=12	=12	=12	=12	=12	=12	=12	=12	=12	=12	=12	=12	=12	=12
8r	.	8r	8r	.	2.ryy	.	.	(8A#X\L	San-	.	.	.	.	.	.	2.ryy	2.r	.	.	.	.
(8GG/L	.	8G/L	8g/	.	.	.	.	8B\J)	.	.	.	.	.	.	.	.	.	.	.	.	.
*	*	*	*tremolo	*	*	*	*	*	*	*	*	*	*	*	*	*	*	*	*	*	*
8BB/	.	8B/	8d/L	.	.	.	.	4B\	-cto	.	.	.	.	.	.	.	.	.	.	.	.
8D/J)	.	8d/J	8g/	.	.	.	.	.	.	.	.	.	.	.	.	.	.	.	.	.	.
8G\	.	4g\	8d/	.	.	.	.	4r	.	.	.	.	.	.	.	.	.	.	.	.	.
8r	.	.	8g/J	.	.	.	.	.	.	.	.	.	.	.	.	.	.	.	.	.	.
*	*	*	*Xtremolo	*	*	*	*	*	*	*	*	*	*	*	*	*	*	*	*	*	*
!LO:LB:g=original	!	!	!	!	!	!	!	!	!	!	!	!	!	!	!	!	!	!	!	!	!
=13	=13	=13	=13	=13	=13	=13	=13	=13	=13	=13	=13	=13	=13	=13	=13	=13	=13	=13	=13	=13	=13
8GG/	.	8d/L	16r	.	2.ryy	0.r	.	4.d\	ex	0.r	.	.	0.r	.	.	2.ryy	2.r	0.r	.	2.r	.
.	.	.	(16g/LL	.	.	.	.	.	.	.	.	.	.	.	.	.	.	.	.	.	.
8r	.	8G/	16a/	.	.	.	.	.	.	.	.	.	.	.	.	.	.	.	.	.	.
.	.	.	16b-X/JJ)	.	.	.	.	.	.	.	.	.	.	.	.	.	.	.	.	.	.
!	!	!	!LO:LB:g=original	!	!	!	!	!	!	!	!	!	!	!	!	!	!	!	!	!	!
4G\	.	8d/	(8bn\L	.	.	.	.	.	.	.	.	.	.	.	.	.	.	.	.	.	.
.	.	8B/	8b\	.	.	.	.	16e\LL	Ma-	.	.	.	.	.	.	.	.	.	.	.	.
.	.	.	.	.	.	.	.	16d\JJ	.	.	.	.	.	.	.	.	.	.	.	.	.
4r	.	8d/	8dd\	.	.	.	.	8d\	-ri-	.	.	.	.	.	.	.	.	.	.	.	.
.	.	8G/J	8b\J)	.	.	.	.	8d\	-a	.	.	.	.	.	.	.	.	.	.	.	.
!	!	!	!	!	!	!	!	!LO:LB:g=original	!	!	!	!	!	!	!	!	!	!	!	!	!
=14	=14	=14	=14	=14	=14	=14	=14	=14	=14	=14	=14	=14	=14	=14	=14	=14	=14	=14	=14	=14	=14
8GG/	.	8B 8G/	16r	.	2.ryy	.	.	8.g\	Vir-	.	.	.	.	.	.	2.ryy	2.r	.	.	4r	.
.	.	.	(16g/LL	.	.	.	.	.	.	.	.	.	.	.	.	.	.	.	.	.	.
8r	.	8r	16a/	.	.	.	.	.	.	.	.	.	.	.	.	.	.	.	.	.	.
.	.	.	16b/JJ)	.	.	.	.	16d\	-gi-	.	.	.	.	.	.	.	.	.	.	.	.
4G\	.	4g\	8g/L	.	.	.	.	4d\	-ne	.	.	.	.	.	.	.	.	.	.	(8gg\L	p
.	.	.	8b/	.	.	.	.	.	.	.	.	.	.	.	.	.	.	.	.	8dd\J)	.
4r	.	4r	8B/	.	.	.	.	4r	.	.	.	.	.	.	.	.	.	.	.	4dd\	.
.	.	.	8b/J	.	.	.	.	.	.	.	.	.	.	.	.	.	.	.	.	.	.
=15	=15	=15	=15	=15	=15	=15	=15	=15	=15	=15	=15	=15	=15	=15	=15	=15	=15	=15	=15	=15	=15
*2\right	*	*tremolo	*tremolo	*	*	*	*	*	*ij	*	*	*	*	*	*	*	*	*	*	*	*
!LO:TX:t=P:problem:mixed beam	!	!	!	!	!	!	!	!	!	!	!	!	!	!	!	!	!	!	!	!	!
8D/L	.	8AL 8C/	8f#L 8d/	fp	2.ryy	.	.	4.c\	ex	.	.	.	.	.	.	2.ryy	2.r	.	.	2.r	.
8d\J	.	8A 8C/	8f# 8d/	.	.	.	.	.	.	.	.	.	.	.	.	.	.	.	.	.	.
*tremolo	*	*	*	*	*	*	*	*	*	*	*	*	*	*	*	*	*	*	*	*	*
8d\L	.	8A 8C/	8f# 8d/	.	.	.	.	.	.	.	.	.	.	.	.	.	.	.	.	.	.
8d\	.	8A 8C/	8f# 8d/	.	.	.	.	(16d\LL	Ma-	.	.	.	.	.	.	.	.	.	.	.	.
.	.	.	.	.	.	.	.	16c\JJ)	.	.	.	.	.	.	.	.	.	.	.	.	.
8d\	.	8A 8C/	8f# 8d/	.	.	.	.	8c\	-ri-	.	.	.	.	.	.	.	.	.	.	.	.
8d\J	.	8AJ 8C/	8f#J 8d/	.	.	.	.	8c\	-a	.	.	.	.	.	.	.	.	.	.	.	.
*Xtremolo	*	*	*	*	*	*	*	*	*	*	*	*	*	*	*	*	*	*	*	*	*
=16	=16	=16	=16	=16	=16	=16	=16	=16	=16	=16	=16	=16	=16	=16	=16	=16	=16	=16	=16	=16	=16
*	*	*	*rep	*	*	*	*	*	*	*	*	*	*	*	*	*	*	*	*	*	*
!LO:TX:t=P:problem:mixed beam	!	!	!	!	!	!	!	!	!	!	!	!	!	!	!	!	!	!	!	!	!
8d\L	.	8AL 8C/	8f#L 8d/	.	2.ryy	.	.	8.a\	Vir-	.	.	.	.	.	.	2.ryy	2.r	.	.	4r	.
8D/J	.	8A 8C/	8f# 8d/	.	.	.	.	.	.	.	.	.	.	.	.	.	.	.	.	.	.
.	.	.	.	.	.	.	.	16c\	-gi-	.	.	.	.	.	.	.	.	.	.	.	.
*tremolo	*	*	*	*	*	*	*	*	*	*	*	*	*	*	*	*	*	*	*	*	*
8D/L	.	8A 8C/	8f# 8d/	.	.	.	.	4c\	-ne	.	.	.	.	.	.	.	.	.	.	8aa\L	.
*	*	*	*	*	*	*	*	*	*Xij	*	*	*	*	*	*	*	*	*	*	*	*
8D/	.	8A 8C/	8f# 8d/	.	.	.	.	.	.	.	.	.	.	.	.	.	.	.	.	8cc\J	.
8D/	.	8A 8C/	8f# 8d/	.	.	.	.	4r	.	.	.	.	.	.	.	.	.	.	.	4cc\	.
8D/J	.	8AJ 8C/	8f#J 8d/	.	.	.	.	.	.	.	.	.	.	.	.	.	.	.	.	.	.
*Xtremolo	*	*Xtremolo	*Xrep	*	*	*	*	*	*	*	*	*	*	*	*	*	*	*	*	*	*
*	*	*	*Xtremolo	*	*	*	*	*	*	*	*	*	*	*	*	*	*	*	*	*	*
=17	=17	=17	=17	=17	=17	=17	=17	=17	=17	=17	=17	=17	=17	=17	=17	=17	=17	=17	=17	=17	=17
!LO:TX:t=P:problem:mixed beam	!	!LO:TX:t=P:problem:mixed beam	!	!	!	!	!	!	!	!	!	!	!	!	!	!	!	!LO:TX:b:i:t=dol	!	!LO:TX:b:i:t=dol	!
8G\L	.	8GL 8D/	8r	.	2.ryy	0.r	.	4d\	et	0.r	.	.	0.r	.	.	2.ryy	2.r	4b\	.	4dd\	.
8GG/J	.	8g\J	8B/	.	.	.	.	.	.	.	.	.	.	.	.	.	.	.	.	.	.
*	*	*2\right	*	*	*	*	*	*	*	*	*	*	*	*	*	*	*	*	*	*	*
*tremolo	*	*tremolo	*	*	*	*	*	*	*	*	*	*	*	*	*	*	*	*	*	*	*
8GG/L	.	8g\L	8r	.	.	.	.	4e\	ho-	.	.	.	.	.	.	.	.	4cc\	.	4ee\	.
8GG/	.	8g\	8c/	.	.	.	.	.	.	.	.	.	.	.	.	.	.	.	.	.	.
8GG/	.	8g\	8r	.	.	.	.	4fn\	-mo	.	.	.	.	.	.	.	.	4dd\	.	4ffn\	.
8GG/J	.	8g\J	8d/	.	.	.	.	.	.	.	.	.	.	.	.	.	.	.	.	.	.
*Xtremolo	*	*Xtremolo	*	*	*	*	*	*	*	*	*	*	*	*	*	*	*	*	*	*	*
=18	=18	=18	=18	=18	=18	=18	=18	=18	=18	=18	=18	=18	=18	=18	=18	=18	=18	=18	=18	=18	=18
!LO:TX:t=P:problem:mixed beam	!	!LO:TX:t=P:problem:mixed beam	!	!	!	!	!	!LO:SIC:v:s=(8fn\L	!	!	!	!	!	!	!	!	!	!	!LO:DY:t=for	!LO:SIC:v:s=(8ffn\L	!
8C/L	.	8cc\L	8r	.	2.ryy	.	.	(8f#\L	fa-	.	.	.	.	.	.	2.ryy	2.r	8dd\L	f	(8ff#\L	.
8c\J	.	8c\J	8c/	.	.	.	.	8e\J)	-ctus	.	.	.	.	.	.	.	.	8cc\J	.	8ee\J)	.
*tremolo	*	*tremolo	*	*	*	*	*	*	*	*	*	*	*	*	*	*	*	*	*	*	*
8C/L	.	8c/L	4e/	.	.	.	.	4e\	est	.	.	.	.	.	.	.	.	4cc\	.	4ee\	f
8C/	.	8c/	.	.	.	.	.	.	.	.	.	.	.	.	.	.	.	.	.	.	.
8C/	.	8c/	4r	.	.	.	.	4r	.	.	.	.	.	.	.	.	.	4r	.	4r	.
8C/J	.	8c/J	.	.	.	.	.	.	.	.	.	.	.	.	.	.	.	.	.	.	.
*Xtremolo	*	*Xtremolo	*	*	*	*	*	*	*	*	*	*	*	*	*	*	*	*	*	*	*
=19	=19	=19	=19	=19	=19	=19	=19	=19	=19	=19	=19	=19	=19	=19	=19	=19	=19	=19	=19	=19	=19
8C/	.	4c\	8r	.	2.ryy	.	.	4e\	et	.	.	.	.	.	.	2.ryy	2.r	4cc\	p	4ee\	.
8r	.	.	8c/	.	.	.	.	.	.	.	.	.	.	.	.	.	.	.	.	.	.
8D\	.	4d\	8r	.	.	.	.	4f#X\	ho-	.	.	.	.	.	.	.	.	4a\	.	4ff#X\	p
8r	.	.	8A/	.	.	.	.	.	.	.	.	.	.	.	.	.	.	.	.	.	.
8G\	.	4B/	8r	.	.	.	.	4g\	-mo	.	.	.	.	.	.	.	.	4b\	.	4gg\	.
8r	.	.	8B/	.	.	.	.	.	.	.	.	.	.	.	.	.	.	.	.	.	.
!	!	!LO:LB:g=original	!	!	!	!	!	!	!	!	!	!	!	!	!	!	!	!LO:LB:g=original	!	!	!
=20	=20	=20	=20	=20	=20	=20	=20	=20	=20	=20	=20	=20	=20	=20	=20	=20	=20	=20	=20	=20	=20
*	*	*tremolo	*tremolo	*	*	*	*	*	*	*	*	*	*	*	*	*	*	*	*	*	*
!	!	!	!	!LO:DY:t=po:rj	!	!	!	!	!	!	!	!	!	!	!	!	!	!	!	!	!
8GG/	.	16G/LL	16B/LL	p	2.ryy	.	.	4.G/	ho-	.	.	.	.	.	.	2.ryy	2.r	8r	.	8r	.
.	.	16B/	16d/	.	.	.	.	.	.	.	.	.	.	.	.	.	.	.	.	.	.
8r	.	16G/	16B/	.	.	.	.	.	.	.	.	.	.	.	.	.	.	8b\L	.	8gg\L	.
.	.	16B/	16d/	.	.	.	.	.	.	.	.	.	.	.	.	.	.	.	.	.	.
!	!	!	!	!	!	!	!	!	!	!	!	!	!	!	!	!	!	!	!	!	!LO:DY:t=po
4r	.	16G/	16B/	.	.	.	.	.	.	.	.	.	.	.	.	.	.	8b\	.	8gg\	p
.	.	16B/	16d/	.	.	.	.	.	.	.	.	.	.	.	.	.	.	.	.	.	.
.	.	16G/	16B/	.	.	.	.	8G/	-mo	.	.	.	.	.	.	.	.	8b\J	.	8gg\	.
.	.	16B/JJ	16d/JJ	.	.	.	.	.	.	.	.	.	.	.	.	.	.	.	.	.	.
*	*	*Xtremolo	*Xtremolo	*	*	*	*	*	*	*	*	*	*	*	*	*	*	*	*	*	*
8r	.	16A/LL	16c/LL	.	.	.	.	(16B/LL	fa-	.	.	.	.	.	.	.	.	8dd\L	.	8aa\	.
.	.	16B/	16d/	.	.	.	.	16A/	.	.	.	.	.	.	.	.	.	.	.	.	.
8D\	.	16A/	16c/	.	.	.	.	16G/)	.	.	.	.	.	.	.	.	.	8dd\J	.	8aa\J	.
.	.	16B/JJ	16d/JJ	.	.	.	.	16F#/JJ	-ctus	.	.	.	.	.	.	.	.	.	.	.	.
=21	=21	=21	=21	=21	=21	=21	=21	=21	=21	=21	=21	=21	=21	=21	=21	=21	=21	=21	=21	=21	=21
*	*	*tremolo	*tremolo	*	*	*	*	*	*	*	*	*	*	*	*	*	*	*	*	*	*
!	!	!	!	!	!	!LO:TX:a:i:t=Solo	!	!	!	!	!	!	!	!	!	!	!	!	!	!	!
4r	.	32GLLL 32D/	32dLLL 32B/	.	2.ryy	8.G\	Cru-	4G/	est	1.r	.	.	1.r	.	.	2.ryy	2.r	4b\	.	4gg\	.
.	.	32G 32D/	32d 32B/	.	.	.	.	.	.	.	.	.	.	.	.	.	.	.	.	.	.
.	.	32G 32D/	32d 32B/	.	.	.	.	.	.	.	.	.	.	.	.	.	.	.	.	.	.
.	.	32G 32D/	32d 32B/	.	.	.	.	.	.	.	.	.	.	.	.	.	.	.	.	.	.
.	.	32G 32D/	32d 32B/	.	.	.	.	.	.	.	.	.	.	.	.	.	.	.	.	.	.
.	.	32G 32D/	32d 32B/	.	.	.	.	.	.	.	.	.	.	.	.	.	.	.	.	.	.
.	.	32G 32D/	32d 32B/	.	.	16G\	-ci-	.	.	.	.	.	.	.	.	.	.	.	.	.	.
.	.	32G 32D/	32d 32B/	.	.	.	.	.	.	.	.	.	.	.	.	.	.	.	.	.	.
16G\LL	.	32G 32D/	32d 32B/	.	.	4B\	-fi-	4r	.	.	.	.	.	.	.	.	.	4r	.	4r	.
.	.	32G 32D/	32d 32B/	.	.	.	.	.	.	.	.	.	.	.	.	.	.	.	.	.	.
16G\	.	32G 32D/	32d 32B/	.	.	.	.	.	.	.	.	.	.	.	.	.	.	.	.	.	.
.	.	32G 32D/	32d 32B/	.	.	.	.	.	.	.	.	.	.	.	.	.	.	.	.	.	.
16B\	.	32G 32D/	32d 32B/	.	.	.	.	.	.	.	.	.	.	.	.	.	.	.	.	.	.
.	.	32G 32D/	32d 32B/	.	.	.	.	.	.	.	.	.	.	.	.	.	.	.	.	.	.
16B\JJ	.	32G 32D/	32d 32B/	.	.	.	.	.	.	.	.	.	.	.	.	.	.	.	.	.	.
.	.	32G 32D/	32d 32B/	.	.	.	.	.	.	.	.	.	.	.	.	.	.	.	.	.	.
4d\	.	32G 32D/	32d 32B/	.	.	4G\	-xus	4r	.	.	.	.	.	.	.	.	.	4r	.	4r	.
.	.	32G 32D/	32d 32B/	.	.	.	.	.	.	.	.	.	.	.	.	.	.	.	.	.	.
.	.	32G 32D/	32d 32B/	.	.	.	.	.	.	.	.	.	.	.	.	.	.	.	.	.	.
.	.	32G 32D/	32d 32B/	.	.	.	.	.	.	.	.	.	.	.	.	.	.	.	.	.	.
.	.	32G 32D/	32d 32B/	.	.	.	.	.	.	.	.	.	.	.	.	.	.	.	.	.	.
.	.	32G 32D/	32d 32B/	.	.	.	.	.	.	.	.	.	.	.	.	.	.	.	.	.	.
.	.	32G 32D/	32d 32B/	.	.	.	.	.	.	.	.	.	.	.	.	.	.	.	.	.	.
.	.	32GJJJ 32D/	32dJJJ 32B/	.	.	.	.	.	.	.	.	.	.	.	.	.	.	.	.	.	.
!	!	!	!LO:LB:g=original	!	!	!	!	!	!	!	!	!	!	!	!	!	!	!	!	!	!
=22	=22	=22	=22	=22	=22	=22	=22	=22	=22	=22	=22	=22	=22	=22	=22	=22	=22	=22	=22	=22	=22
4r	.	32ALLL 32F#/	32dLLL 32c	.	2.ryy	8.d\	e-	2.r	.	.	.	.	.	.	.	2.ryy	2.r	1.r	.	1.r	.
.	.	32A 32F#/	32d 32c/	.	.	.	.	.	.	.	.	.	.	.	.	.	.	.	.	.	.
.	.	32A 32F#/	32d 32c/	.	.	.	.	.	.	.	.	.	.	.	.	.	.	.	.	.	.
.	.	32A 32F#/	32d 32c/	.	.	.	.	.	.	.	.	.	.	.	.	.	.	.	.	.	.
.	.	32A 32F#/	32d 32c/	.	.	.	.	.	.	.	.	.	.	.	.	.	.	.	.	.	.
.	.	32A 32F#/	32d 32c/	.	.	.	.	.	.	.	.	.	.	.	.	.	.	.	.	.	.
.	.	32A 32F#/	32d 32c/	.	.	16D\	-ti-	.	.	.	.	.	.	.	.	.	.	.	.	.	.
.	.	32A 32F#/	32d 32c/	.	.	.	.	.	.	.	.	.	.	.	.	.	.	.	.	.	.
16F#\LL	.	32A 32F#/	32d 32c/	.	.	8D\	-am	.	.	.	.	.	.	.	.	.	.	.	.	.	.
.	.	32A 32F#/	32d 32c/	.	.	.	.	.	.	.	.	.	.	.	.	.	.	.	.	.	.
16F#\	.	32A 32F#/	32d 32c/	.	.	.	.	.	.	.	.	.	.	.	.	.	.	.	.	.	.
.	.	32A 32F#/	32d 32c/	.	.	.	.	.	.	.	.	.	.	.	.	.	.	.	.	.	.
16A\	.	32A 32F#/	32d 32c/	.	.	8DsS\	pro	.	.	.	.	.	.	.	.	.	.	.	.	.	.
.	.	32A 32F#/	32d 32c/	.	.	.	.	.	.	.	.	.	.	.	.	.	.	.	.	.	.
16A\JJ	.	32A 32F#/	32d 32c/	.	.	.	.	.	.	.	.	.	.	.	.	.	.	.	.	.	.
.	.	32A 32F#/	32d 32c/	.	.	.	.	.	.	.	.	.	.	.	.	.	.	.	.	.	.
!LO:LB:g=original	!	!	!	!	!	!	!	!	!	!	!	!	!	!	!	!	!	!	!	!	!
4d\	.	32A 32F#/	32d 32c/	.	.	8E\L	no-	.	.	.	.	.	.	.	.	.	.	.	.	.	.
.	.	32A 32F#/	32d 32c/	.	.	.	.	.	.	.	.	.	.	.	.	.	.	.	.	.	.
.	.	32A 32F#/	32d 32c/	.	.	.	.	.	.	.	.	.	.	.	.	.	.	.	.	.	.
.	.	32A 32F#/	32d 32c/	.	.	.	.	.	.	.	.	.	.	.	.	.	.	.	.	.	.
.	.	32A 32F#/	32d 32c/	.	.	8F#\J	.	.	.	.	.	.	.	.	.	.	.	.	.	.	.
.	.	32A 32F#/	32d 32c/	.	.	.	.	.	.	.	.	.	.	.	.	.	.	.	.	.	.
.	.	32A 32F#/	32d 32c/	.	.	.	.	.	.	.	.	.	.	.	.	.	.	.	.	.	.
.	.	32AJJJ 32F#/	32dJJJ 32c/	.	.	.	.	.	.	.	.	.	.	.	.	.	.	.	.	.	.
*	*	*Xtremolo	*Xtremolo	*	*	*	*	*	*	*	*	*	*	*	*	*	*	*	*	*	*
!	!	!	!	!	!	!	!	!LO:LB:g=original	!	!	!	!	!	!	!	!	!	!	!	!	!
=23	=23	=23	=23	=23	=23	=23	=23	=23	=23	=23	=23	=23	=23	=23	=23	=23	=23	=23	=23	=23	=23
!	!	!	!	!	!	!	!	!	!	!	!	!LO:DY:a	!	!	!	!	!	!	!	!	!
4G\	.	8G 8D/	8d 8B/	.	2.ryy	4G\	-bis	8r	.	8r	.	p	8r	.	.	2.ryy	2.r	.	.	.	.
!	!	!	!	!	!	!	!	!	!	!	!	!	!	!	!LO:DY:a:t=p	!	!	!	!	!	!
.	.	8r	8r	.	.	.	.	8B\	Sub	8G/	Sub	.	8dd\	Sub	p	.	.	.	.	.	.
*	*	*tremolo	*	*	*	*	*	*	*	*	*	*	*	*	*	*	*	*	*	*	*
4r	.	8GL 8D/	2d 2B/	.	.	4r	.	8B\L	pon-	8B/L	Pon-	.	8ddT\	pon-	.	.	.	.	.	.	.
.	.	8G 8D/	.	.	.	.	.	8G\J	.	8d/J	-ti-	.	8b\	-ti-	.	.	.	.	.	.	.
(4GG/	.	8G 8D/	.	.	.	4r	.	8G\L	-tio	8d\	-o	.	8b\	-o	.	.	.	.	.	.	.
.	.	8GJ 8D/	.	.	.	.	.	8B\J	pil-	8d\	Pi-	.	8g\	Pi-	.	.	.	.	.	.	.
=24	=24	=24	=24	=24	=24	=24	=24	=24	=24	=24	=24	=24	=24	=24	=24	=24	=24	=24	=24	=24	=24
*	*	*	*tremolo	*	*	*	*	*	*	*	*	*	*	*	*	*	*	*	*	*	*
8D/)	.	16ALL 16F#/	16eLL 16c/	.	2.ryy	4r	.	8.a\L	-la-	8.f#\L	-la-	.	(8.cc\	-la-	.	2.ryy	2.r	2.r	.	2.r	.
.	.	16A 16F#/	16e 16c/	.	.	.	.	.	.	.	.	.	.	.	.	.	.	.	.	.	.
8r	.	16A 16F#/	16e 16c/	.	.	.	.	.	.	.	.	.	.	.	.	.	.	.	.	.	.
!	!	!	!	!	!	!	!	!	!	!	!	!	!LO:N:vis=32	!	!	!	!	!	!	!	!
.	.	16A 16F#/	16e 16c/	.	.	.	.	16f#\Jk	.	16d\Jk	.	.	16a\)	.	.	.	.	.	.	.	.
8r	.	16A 16F#/	16e 16c/	.	.	8r	.	4c\	-to	4d\	-to	.	4f#/	-to	.	.	.	.	.	.	.
.	.	16A 16F#/	16e 16c/	.	.	.	.	.	.	.	.	.	.	.	.	.	.	.	.	.	.
!	!LO:DY:t=for	!	!	!	!	!	!	!	!	!	!	!	!	!	!	!	!	!	!	!	!
16d\LL	f	16A 16F#/	16e 16c/	.	.	16d\	Cru-	.	.	.	.	.	.	.	.	.	.	.	.	.	.
16d\JJ	.	16A 16F#/	16e 16c/	.	.	16d\	-ci-	.	.	.	.	.	.	.	.	.	.	.	.	.	.
!	!	!	!	!	!	!LO:LB:g=original	!	!	!	!	!	!	!	!	!	!	!	!	!	!	!
!	!	!	!	!	!	!LO:TX:t=P:problem:mixed beam	!	!	!	!	!	!	!	!	!	!	!	!	!	!	!
16d\LL	.	16A 16F#/	16e 16c/	.	.	8d\L	-fi-	4r	.	4r	.	.	4r	.	.	.	.	.	.	.	.
16A\	.	16A 16F#/	16e 16c/	.	.	.	.	.	.	.	.	.	.	.	.	.	.	.	.	.	.
16F#\	.	16A 16F#/	16e 16c/	.	.	8D/J	-xus	.	.	.	.	.	.	.	.	.	.	.	.	.	.
16D\JJ	.	16AJJ 16F#/	16eJJ 16c/	.	.	.	.	.	.	.	.	.	.	.	.	.	.	.	.	.	.
=25	=25	=25	=25	=25	=25	=25	=25	=25	=25	=25	=25	=25	=25	=25	=25	=25	=25	=25	=25	=25	=25
!	!	!	!	!	!	!	!	!	!	!	!	!LO:DY:b:rj:t=p	!	!	!	!	!	!	!LO:DY:t=po	!	!
8r	.	16GLL 16D/	8B/L	.	2.ryy	8BB/	Paſ-	8B\	Paſ-	8g\	Paſ-	p	8dd\	Paſ-	.	2.ryy	2.r	4b\	p	4dd\	.
.	.	16G 16D/	.	.	.	.	.	.	.	.	.	.	.	.	.	.	.	.	.	.	.
8BB/	.	16G 16D/	8B/	.	.	8BB/	-sus	8B\	-sus	8g\	-sus	.	8dd\	-sus	.	.	.	.	.	.	.
.	.	16G 16D/	.	.	.	.	.	.	.	.	.	.	.	.	.	.	.	.	.	.	.
*tremolo	*	*	*	*	*	*	*	*	*	*	*	*	*	*	*	*	*	*	*	*	*
!	!	!	!	!	!	!	!	!	!	!LO:LB:g=original	!	!	!	!	!LO:DY:a:t=po:rj	!	!	!	!	!	!LO:DY:t=po
8BB/L	.	16G 16D/	8B/	.	.	4.BB/	et	4.d\	et	4.g\	et	.	4.dd\	et	p	.	.	4b\	.	4dd\	p
.	.	16G 16D/	.	.	.	.	.	.	.	.	.	.	.	.	.	.	.	.	.	.	.
8BB/	.	16G 16D/	8B/	.	.	.	.	.	.	.	.	.	.	.	.	.	.	.	.	.	.
.	.	16G 16D/	.	.	.	.	.	.	.	.	.	.	.	.	.	.	.	.	.	.	.
8BB/	.	16G 16D/	8B/	.	.	.	.	.	.	.	.	.	.	.	.	.	.	4dd\	.	4ffn\	.
.	.	16G 16D/	.	.	.	.	.	.	.	.	.	.	.	.	.	.	.	.	.	.	.
8BB/J	.	16G 16D/	8B/J	.	.	8BB/	se-	8d\	se-	8b\	se-	.	8ffn\	se-	.	.	.	.	.	.	.
.	.	16GJJ 16D/	.	.	.	.	.	.	.	.	.	.	.	.	.	.	.	.	.	.	.
*Xtremolo	*	*Xtremolo	*Xtremolo	*	*	*	*	*	*	*	*	*	*	*	*	*	*	*	*	*	*
!	!	!	!	!	!	!	!	!	!	!	!	!	!	!	!	!	!	!	!	!LO:LB:g=original	!
=26	=26	=26	=26	=26	=26	=26	=26	=26	=26	=26	=26	=26	=26	=26	=26	=26	=26	=26	=26	=26	=26
!	!	!	!	!	!	!	!	!	!	!	!	!	!LO:SIC:v:s=(8ffn\	!	!	!	!	!	!	!	!
8r	.	8r	8r	.	2.ryy	8BB/L	-pul-	8d\L	-pul-	8b\	-pul-	.	(8ff#\	-pul-	.	2.ryy	2.r	8dd\L	.	(8ffn\L	.
8C/	.	8G 8E/	8e 8c/	.	.	8C/J	-tus	8e\J	-tus	8cc\	-tus	.	8ee\)	tus	.	.	.	8cc\J	.	8ee\J)	.
*tremolo	*	*tremolo	*tremolo	*	*	*	*	*	*	*	*	*	*	*	*	*	*	*	*	*	*
8C/L	.	8GL 8E/	8eL 8c/	.	.	8C/	est	4e\	est	4cc\	est	.	4ee\	est	.	.	.	4cc\	.	4ee\	.
8C/	.	8G 8E/	8e 8c/	.	.	16E\	Cru-	.	.	.	.	.	.	.	.	.	.	.	.	.	.
.	.	.	.	.	.	16G\	-ci-	.	.	.	.	.	.	.	.	.	.	.	.	.	.
!	!	!	!	!	!	!LO:TX:t=P:problem:mixed beam	!	!	!	!	!	!	!	!	!	!	!	!	!	!	!
8C/	.	8G 8E/	8e 8c/	.	.	8c\L	-fi-	4r	.	4r	.	.	4r	.	.	.	.	4r	.	4r	.
8C/J	.	8GJ 8E/	8eJ 8c/	.	.	8C/J	-xus	.	.	.	.	.	.	.	.	.	.	.	.	.	.
*Xtremolo	*	*Xtremolo	*Xtremolo	*	*	*	*	*	*	*	*	*	*	*	*	*	*	*	*	*	*
=27	=27	=27	=27	=27	=27	=27	=27	=27	=27	=27	=27	=27	=27	=27	=27	=27	=27	=27	=27	=27	=27
*	*	*	*	*	*	*	*	*	*ij	*	*ij	*	*	*ij	*	*	*	*	*	*	*
8r	.	8r	8r	.	2.ryy	8.D\	Paſ-	8c\L	Paſ-	8a\L	Paſ-	.	8ff#X\	Paſ-	.	2.ryy	2.r	4a/	.	4ff#X\	.
8D\	.	8A 8F#/	8a 8f#/	.	.	.	.	8c\J	-sus	8a\J	-sus	.	8ff#\	-sus	.	.	.	.	.	.	.
.	.	.	.	.	.	16D\	-sus	.	.	.	.	.	.	.	.	.	.	.	.	.	.
*tremolo	*	*tremolo	*tremolo	*	*	*	*	*	*	*	*	*	*	*	*	*	*	*	*	*	*
8D\L	.	8AL 8F#/	8aL 8f#/	.	.	4.D\	et	4.c\	et	4.a\	et	.	4.ff#\	-et	.	.	.	4.a/	.	4.ff#\	.
8D\	.	8A 8F#/	8a 8f#/	.	.	.	.	.	.	.	.	.	.	.	.	.	.	.	.	.	.
8D\	.	8A 8F#/	8a 8f#/	.	.	.	.	.	.	.	.	.	.	.	.	.	.	.	.	.	.
8D\J	.	8AJ 8F#/	8aJ 8f#/	.	.	8D\	se-	8c\	se-	8a\	se-	.	8aa\	se-	.	.	.	8cc\	.	8aa\	.
*Xtremolo	*	*Xtremolo	*Xtremolo	*	*	*	*	*	*	*	*	*	*	*	*	*	*	*	*	*	*
!	!	!	!	!	!	!	!	!	!	!	!	!	!LO:LB:g=original	!	!	!	!	!	!	!	!
=28	=28	=28	=28	=28	=28	=28	=28	=28	=28	=28	=28	=28	=28	=28	=28	=28	=28	=28	=28	=28	=28
!	!	!	!	!	!	!LO:TX:t=P:problem:mixed beam	!	!	!	!	!	!	!	!	!	!	!	!	!	!	!
8r	.	8r	8r	.	2.ryy	8G\L	-pul-	8.c\L	-pul-	8.a\L	-pul-	.	8.aa\L	-pul-	.	2.ryy	2.r	8cc\L	.	8aa\L	.
8G\	.	8GL 8D/	8gL 8G/	.	.	8GG/J	-tus	.	.	.	.	.	.	.	.	.	.	8b\J	.	8gg\J	.
.	.	.	.	.	.	.	.	16d\Jk	-tus	16b\Jk	-tus	.	16gg\Jk	-tus	.	.	.	.	.	.	.
*tremolo	*	*	*	*	*	*	*	*	*	*	*	*	*	*	*	*	*	*	*	*	*
8G\L	.	8G 8D/	8g 8G/	.	.	4GG/	est	4d\	est	4b\	est	.	4gg\	est	.	.	.	4b\	.	4gg\	.
*	*	*	*	*	*	*	*	*	*Xij	*	*Xij	*	*	*Xij	*	*	*	*	*	*	*
8G\	.	8G 8D/	8g 8G/	.	.	.	.	.	.	.	.	.	.	.	.	.	.	.	.	.	.
8G\	.	8GJ 8D/	8gJ 8G/	.	.	4r	.	4r	.	4r	.	.	4r	.	.	.	.	4r	.	4r	.
8G\J	.	8r	8r	.	.	.	.	.	.	.	.	.	.	.	.	.	.	.	.	.	.
*Xtremolo	*	*	*	*	*	*	*	*	*	*	*	*	*	*	*	*	*	*	*	*	*
=29	=29	=29	=29	=29	=29	=29	=29	=29	=29	=29	=29	=29	=29	=29	=29	=29	=29	=29	=29	=29	=29
!	!	!	!	!	!	!	!	!	!	!	!	!LO:DY:a	!	!	!LO:DY:a:t=p	!	!	!	!	!	!
8r	.	4r	8r	.	2.ryy	4r	.	4r	.	4r	.	p	4r	.	p	2.ryy	2.r	4r	.	4r	.
8D\	.	.	8cc 8a/	.	.	.	.	.	.	.	.	.	.	.	.	.	.	.	.	.	.
*tremolo	*	*	*tremolo	*	*	*	*ij	*	*	*	*	*	*	*	*	*	*	*2\right	*	*2\right	*
!	!	!	!	!	!	!LO:TX:t=P:problem:mixed beam	!	!	!	!	!	!	!	!	!	!	!	!	!	!	!
8D\L	.	16A/LL	8ccL 8a/	.	.	8d\L	Paſ-	8c\	Paſ-	8a\	Paſ-	.	8ff#\	Pas-	.	.	.	(2cc\	.	(2ff#\	.
.	.	16d/	.	.	.	.	.	.	.	.	.	.	.	.	.	.	.	.	.	.	.
8D\	.	16c/	8cc 8a/	.	.	8D/	-sus	8c\	-sus	8a\	-sus	.	8ff#\	-sus	.	.	.	.	.	.	.
.	.	16d/JJ	.	.	.	.	.	.	.	.	.	.	.	.	.	.	.	.	.	.	.
*	*	*rep	*	*	*	*	*	*	*	*	*	*	*	*	*	*	*	*	*	*	*
8D\	.	16A/LL	8cc 8a/	.	.	8D/	et	8c\	et	8a\	et	.	8ff#\	et	.	.	.	.	.	.	.
.	.	16d/	.	.	.	.	.	.	.	.	.	.	.	.	.	.	.	.	.	.	.
8D\J	.	16c/	8ccJ 8a/	.	.	8D\/J	se-	8c\	se-	8a\	se-	.	8ff#\	se-	.	.	.	.	.	.	.
.	.	16d/JJ	.	.	.	.	.	.	.	.	.	.	.	.	.	.	.	.	.	.	.
*=	*	*Xrep	*	*	*	*	*	*	*	*	*	*	*	*	*	*	*	*	*	*	*
!	!	!	!	!	!	!	!	!LO:LB:g=original	!	!	!	!	!	!	!	!	!	!	!	!	!
=30	=30	=30	=30	=30	=30	=30	=30	=30	=30	=30	=30	=30	=30	=30	=30	=30	=30	=30	=30	=30	=30
!	!	!	!	!	!	!LO:TX:t=P:problem:mixed beam	!	!	!	!	!	!	!	!	!	!	!	!	!	!	!
8GG/L	.	16G/LL	8bL 8g/	.	2.ryy	8.G\L	-pul-	8.d\	-pul-	8.b\L	-pul-	.	8.gg\	-pul-	.	2.ryy	2.r	4b\)	.	4gg\)	.
.	.	16d/	.	.	.	.	.	.	.	.	.	.	.	.	.	.	.	.	.	.	.
8GG/	.	16B/	8b 8g/	.	.	.	.	.	.	.	.	.	.	.	.	.	.	.	.	.	.
.	.	16d/JJ	.	.	.	16GG/Jk	-tus	16d\	-tus	16b\Jk	-tus	.	16gg\	-tus	.	.	.	.	.	.	.
*	*	*rep	*	*	*	*	*	*	*	*	*	*	*	*	*	*	*	*	*	*	*
8GG/	.	16G/LL	8b 8g/	.	.	4GG/	est	4d\	est	4b\	-est	.	4gg\	-est	.	.	.	4b\	.	4gg\	.
.	.	16d/	.	.	.	.	.	.	.	.	.	.	.	.	.	.	.	.	.	.	.
8GG/J	.	16B/	8b 8g/J	.	.	.	.	.	.	.	.	.	.	.	.	.	.	.	.	.	.
.	.	16d/JJ	.	.	.	.	.	.	.	.	.	.	.	.	.	.	.	.	.	.	.
*	*	*Xrep	*Xtremolo	*	*	*	*	*	*	*	*	*	*	*	*	*	*	*	*	*	*
8GG/	.	8G/	8b 8g/	.	.	4r	.	4r	.	4r	.	.	4r	.	.	.	.	4r	.	4r	.
*Xtremolo	*	*	*	*	*	*	*	*	*	*	*	*	*	*	*	*	*	*	*	*	*
8r	.	8r	8r	.	.	.	.	.	.	.	.	.	.	.	.	.	.	.	.	.	.
!	!	!LO:LB:g=original	!	!	!	!LO:LB:g=original	!	!	!	!	!	!	!	!	!	!	!	!	!	!	!
=31	=31	=31	=31	=31	=31	=31	=31	=31	=31	=31	=31	=31	=31	=31	=31	=31	=31	=31	=31	=31	=31
*	*	*	*	*	*	*	*	*	*ij	*	*ij	*	*	*ij	*	*	*	*	*	*	*
!	!	!	!	!	!	!	!	!	!	!	!	!LO:DY:a:t=pp.:rj	!	!	!	!	!	!	!	!	!
8r	.	4r	8r	.	2.ryy	8d\	Paſ-	8c\	Paſ-	8a\	Paſ-	pp	8ff#\	Pas-	.	2.ryy	2.r	4r	.	4r	.
!LO:TX:t=P:problem:mixed beam	!	!	!	!	!	!	!	!	!	!	!	!	!	!	!LO:DY:b:rj	!	!	!	!	!	!
8d\L	.	.	8a 8d/	.	.	8D/	-sus	8c\	-sus	8a\	-sus	.	8ff#\	-sus	pp	.	.	.	.	.	.
*	*	*	*tremolo	*	*	*	*	*	*	*	*	*	*	*	*	*	*	*	*	*	*
8D/	.	16A/LL	8aL 8d/	.	.	8D/L	et	8c\	et	8a\	et	.	8ff#\	et	.	.	.	2cc\	.	(2ff#\	.
.	.	16d/	.	.	.	.	.	.	.	.	.	.	.	.	.	.	.	.	.	.	.
8D/	.	16c/	8a 8d/	.	.	8D/	se-	8c\	se-	8a\	se-	.	8ff#\	se-	.	.	.	.	.	.	.
.	.	16d/JJ	.	.	.	.	.	.	.	.	.	.	.	.	.	.	.	.	.	.	.
*	*	*rep	*	*	*	*	*	*	*	*	*	*	*	*	*	*	*	*	*	*	*
8D/	.	16A/LL	8a 8d/	.	.	8D/	-pul-	8c\	-pul-	8a\	-pul-	.	8ff#\	-pul-	.	.	.	.	.	.	.
.	.	16d/	.	.	.	.	.	.	.	.	.	.	.	.	.	.	.	.	.	.	.
8D/J	.	16c/	8aJ 8d/	.	.	8D/J	-tus	8c\	-tus	8a\	-tus	.	8ff#\	-tus	.	.	.	.	.	.	.
.	.	16d/JJ	.	.	.	.	.	.	.	.	.	.	.	.	.	.	.	.	.	.	.
*	*	*Xrep	*Xtremolo	*	*	*	*	*	*	*	*	*	*	*	*	*	*	*	*	*	*
!LO:LB:g=original	!	!	!LO:LB:g=original	!	!	!	!	!	!	!	!	!	!	!	!	!	!	!	!	!	!
=32	=32	=32	=32	=32	=32	=32	=32	=32	=32	=32	=32	=32	=32	=32	=32	=32	=32	=32	=32	=32	=32
!	!LO:HP:t=diminuendo	!	!	!LO:HP:t=diminuedo	!	!	!	!	!	!	!	!	!	!	!	!	!	!	!LO:HP:t=diminuendo	!	!LO:HP:t=diminuendo
8G\	>	8G/	4g 4B/	>	2.ryy	4GG/	est	4d\	est	4b\	est	.	4gg\	est	.	2.ryy	2.r	4b\	>	8gg\)	>
*	*	*	*	*	*	*	*Xij	*	*Xij	*	*Xij	*	*	*Xij	*	*	*	*	*	*	*
8r	.	8r	.	.	.	.	.	.	.	.	.	.	.	.	.	.	.	.	.	8r	.
8d\	.	8D/	4g 4B/	.	.	4r	.	4r	.	4r	.	.	4r	.	.	.	.	4d/	.	8dd\	.
8r	.	8r	.	.	.	.	.	.	.	.	.	.	.	.	.	.	.	.	.	8r	.
8B\	.	8B/	4g 4B/	.	.	4r	.	4r	.	4r	.	.	4r	.	.	.	.	4b\	.	8b\	.
8r	.	8r	.	.	.	.	.	.	.	.	.	.	.	.	.	.	.	.	.	8r	.
!	!	!	!	!	!	!	!	!	!	!LO:LB:g=original	!	!	!	!	!	!	!	!	!	!	!
=33	=33	=33	=33	=33	=33	=33	=33	=33	=33	=33	=33	=33	=33	=33	=33	=33	=33	=33	=33	=33	=33
8G\	.	8G/	4g 4B/	.	2.ryy	1.r	.	1.r	.	1.r	.	.	1.r	.	.	2.ryy	2.r	4g/	.	4g/	.
8r	.	8r	.	.	.	.	.	.	.	.	.	.	.	.	.	.	.	.	.	.	.
8D\	.	8D/	4g 4B/	.	.	.	.	.	.	.	.	.	.	.	.	.	.	4d/	.	4dd\	.
8r	.	8r	.	.	.	.	.	.	.	.	.	.	.	.	.	.	.	.	.	.	.
8BB/	.	8B/	4g 4B/	.	.	.	.	.	.	.	.	.	.	.	.	.	.	4b/	.	4b\	.
8r	.	8r	.	.	.	.	.	.	.	.	.	.	.	.	.	.	.	.	.	.	.
=34	=34	=34	=34	=34	=34	=34	=34	=34	=34	=34	=34	=34	=34	=34	=34	=34	=34	=34	=34	=34	=34
8GG/	.	4G/	4G/	.	2.ryy	.	.	.	.	.	.	.	.	.	.	2.ryy	2.r	4g/	.	4g/	.
8r	.	.	.	.	.	.	.	.	.	.	.	.	.	.	.	.	.	.	.	.	.
8GG/	.	4G/	4G/	.	.	.	.	.	.	.	.	.	.	.	.	.	.	4g/	.	4g/	.
8r	.	.	.	.	.	.	.	.	.	.	.	.	.	.	.	.	.	.	.	.	.
8GG/	.	4G/	4G/	.	.	.	.	.	.	.	.	.	.	.	.	.	.	4g/	.	4g/	.
8r	.	.	.	.	.	.	.	.	.	.	.	.	.	.	.	.	.	.	.	.	.
=35	=35	=35	=35	=35	=35	=35	=35	=35	=35	=35	=35	=35	=35	=35	=35	=35	=35	=35	=35	=35	=35
2GG/	.	2G/	2G/	.	2.ryy	2.r	.	2.r	.	2.r	.	.	2.r	.	.	2.ryy	2.r	2.g/	.	2g/	.
4r	.	4r	4r	.	.	.	.	.	.	.	.	.	.	.	.	.	.	.	.	4r	.
==	==	==	==	==	==	==	==	==	==	==	==	==	==	==	==	==	==	==	==	==	==
*-	*-	*-	*-	*-	*-	*-	*-	*-	*-	*-	*-	*-	*-	*-	*-	*-	*-	*-	*-	*-	*-
!!!system-decoration: [(g1)][(g2)][(g3)][(g4)]<s12>
!!!RDF**kern: > = above
!!!RDF**kern: < = below
!!!RDF**kern: | = vertical stroke
!!!RDF**dynam: p = "p."
!!!RDF**dynam: pp = "pp:"
!!!RDF**dynam: f = "f."
!!!AIN: 1 alto 1 bass 2 cor 2 oboe 1 organ 1 soprn 1 tenor 1 viola 2 violn
!!!ENC: Marta Opryszak
!!!END: 2021-12-24
!!!ENC: Andrzej Kubiczek
!!!END: 2021-12-28
